!!!COM: Chopin, Frederic
!!!CDT: 1810///-1849///
!!!OTL: Waltz in A Minor, Brown Index 150
!!!SCA: BI 150
!!!ODT: 1847///
**kern	**kern	**dynam
*staff2	*staff1	*staff1/2
*Ipiano	*Ipiano	*Ipiano
*>[A,B,B,C,C,D]	*>[A,B,B,C,C,D]	*>[A,B,B,C,C,D]
*>norep[A,B,C,D]	*>norep[A,B,C,D]	*>norep[A,B,C,D]
*>A	*>A	*>A
*clefF4	*clefG2	*clefG2
*k[]	*k[]	*k[]
*M3/4	*M3/4	*M3/4
*MM120	*MM120	*MM120
4r	(4e/	mf
=1	=1	=1
4AAA/	8a/L	.
.	8b/J	.
4A\ 4c\ 4e\	4cc\)	.
4A\ 4c\ 4e\	4cc\	.
=2	=2	=2
4DD/	(8dd\L	.
.	8ee\J	.
4A\ 4d\ 4f\	2ff\)	.
4A\ 4d\ 4f\	.	.
=3	=3	=3
4GG/	(8b\L	.
.	8cc\	.
4G\ 4B\ 4f\	8dd\	.
.	8aa\	.
4G\ 4B\ 4f\	8gg\	.
.	8ff\J)	.
=4	=4	=4
.	eeq/LL	.
.	ffq/JJ	.
4C/	(8ee\L	.
.	8dd\J	.
4G\ 4c\ 4e\	2ee\)	.
4G\ 4c\ 4e\	.	.
=5	=5	=5
4AA/	(8a/L	.
.	8b/J	.
4A\ 4c\ 4e\	4cc\)	.
4A\ 4c\ 4e\	4cc\	.
=6	=6	=6
4DD/	(8dd\L	.
.	8ee\J	.
4A\ 4d\ 4f\	2ff\)	.
4A\ 4d\ 4f\	.	.
=7	=7	=7
4GG/	(8b\L	.
.	8cc\	.
4G\ 4B\ 4f\	8dd\	.
.	8aa\	.
4G\ 4d\ 4f\	8gg\	.
.	8b\J	.
=8	=8	=8
4C/	4cc\)	.
4G\ 4c\ 4e\	4r	.
4r	4e/	p
=9	=9	=9
4AAA/	(8a/L	.
.	8b/J	.
4A\ 4c\ 4e\	4cc\)	.
4A\ 4c\ 4e\	4cc\	.
=10	=10	=10
4DD/	(8dd\L	.
.	8ee\J	.
4A\ 4d\ 4f\	2ff\)	.
4A\ 4d\ 4f\	.	.
=11	=11	=11
4GG/	(8b\L	.
.	8cc\	.
4G\ 4B\ 4f\	8dd\	.
.	8aa\	.
4G\ 4B\ 4f\	8gg\	.
.	8ff\J)	.
=12	=12	=12
.	eeq/LL	.
.	ffq/JJ	.
4C/	(8ee\L	.
.	8dd#\J	.
4G\ 4c\ 4e\	2ee\)	.
4G\ 4c\ 4e\	.	.
=13	=13	=13
4AA/	(8cc\L	mf
.	8dd\J	.
4A\ 4c\ 4e\	4ee\)	.
4A\ 4c\ 4e\	4ee\	.
=14	=14	=14
4DD/	(8ff\L	<
.	8gg\J	.
4A\ 4d\ 4f\	2aa\)	.
4A\ 4d\ 4f\	.	.
=15	=15	=15
4GG/	4gg\	.
4G\ 4B\ 4f\	8ff#\L	.
.	8gg\	.
4G\ 4B\ 4f\	8ddd\	.
.	8ffn\J	.
=16	=16	=16
4C/	2.ee\	.
4G\ 4c\ 4e\	.	.
4G\ 4c\ 4e\	.	.
=17!|:	=17!|:	=17!|:
*>B	*>B	*>B
4EE/	(8ee\L	f
.	8ff#\	.
4E\ 4B\ 4d\	8gg#\	.
.	8aa\	.
4E\ 4G#\ 4d\	8bb\	.
.	8ccc\J	.
=18	=18	=18
.	bbq/LL	.
.	cccq/JJ	.
4AA/	8bb\L	.
.	8aa\	.
4E\ 4A\ 4c\	8ee\)	.
.	8bb\J	.
4E\ 4A\ 4c\	4aa\	.
=19	=19	=19
.	aaq/LL	.
.	bbq/JJ	.
4EE/	(8aa\L	.
.	8gg#\	.
4E\ 4B\ 4d\	8ee\	.
.	8ff\J	.
4E\ 4B\ 4d\	4ee\)	.
=20	=20	=20
.	eeq/LL	.
.	ffq/JJ	.
4AA/	(8ee\L	.
.	8cc\	.
4E\ 4A\ 4c\	8a\	.
.	8b\J	.
4E\ 4A\ 4c\	4a/)	.
=21	=21	=21
4EE/	(12e/L	.
.	12g#/	.
.	12b/J	.
4E\ 4B\ 4d\	20ee\LL	.
.	20gg#\	.
.	20bb\	.
*	*8va	*
.	20eee\	.
.	20ggg#\JJ	.
4E\ 4G#\ 4d\	8.bbb\L	.
.	16cccc\Jk)	.
=22	=22	=22
.	bbbq/LL	.
.	ccccq/JJ	.
4AA/	(8bbb\L	.
.	8aaa\	.
4E\ 4A\ 4c\	8eee\	.
.	8bbb\J)	.
4E\ 4A\ 4c\	4aaa\	.
=23	=23	=23
.	aaaq/LL	.
.	bbbq/JJ	.
4EE/	(8aaa\L	.
.	8ggg#\	.
4E\ 4B\ 4d\	8eee\	.
.	8eeee\J	.
4E\ 4B\ 4d\	4eeee\	.
=24	=24	=24
4AA/	2aaa\)	.
*	*X8va	*
4E\ 4A\ 4c\	.	.
4E\ 4A\ 4c\	4r	.
=25:|!|:	=25:|!|:	=25:|!|:
*>C	*>C	*>C
4AAA/	(8a/L	p
.	8b/J	.
4A\ 4c\ 4e\	4cc\)	.
4A\ 4c\ 4e\	4cc\	.
=26	=26	=26
4DD/	(8dd\L	.
.	8ee\J	.
4A\ 4d\ 4f\	2ff\)	.
4A\ 4d\ 4f\	.	.
=27	=27	=27
4GG/	(8b\L	.
.	8cc\	.
4G\ 4B\ 4f\	8dd\	.
.	8aa\	.
4G\ 4B\ 4f\	8gg\	.
.	8ff\J)	.
=28	=28	=28
.	eeq/LL	.
.	ffq/JJ	.
4C/	(8ee\L	.
.	8dd#\J	.
4G\ 4c\ 4e\	2ee\)	.
4G\ 4c\ 4e\	.	.
=29	=29	=29
4AA/	(8cc\L	.
.	8dd\J	.
4A\ 4c\ 4e\	4ee\)	.
4A\ 4c\ 4e\	4ee\	.
=30	=30	=30
4DD/	(8ff\L	.
.	8gg\J	.
4A\ 4d\ 4f\	2aa\)	.
4A\ 4d\ 4f\	.	.
=31	=31	=31
4BBB/	(8dd#\L	<
.	8ee\J	.
4A\ 4B\ 4d#\	4ff#\)	.
4A\ 4B\ 4d#\	4ff#\	.
=32	=32	=32
4EE/	(8gg#\L	.
.	8aa\J	.
4E\ 4B\ 4dn\	2bb\)	.
4r	.	.
=33	=33	=33
4EE/	(8bb\L	.
.	8ccc#\	mf
4E\ 4G#\ 4d\	8ddd\	.
.	8fff#\	.
4E\ 4G#\ 4d\	8eee\	.
.	8ddd\J	.
=34	=34	=34
4AA/	8ccc#\L	.
.	8bb\	.
4E\ 4A\ 4c#\	8ccc#\	.
.	8gg#\	.
4E\ 4A\ 4c#\	8aa\	.
.	8ff#\J)	.
=35	=35	=35
.	eeq/LL	.
.	(ff#q/JJ	.
4EE/	8ee\L	.
.	8dd\	.
4E\ 4B\ 4d\	8g#\	.
.	8ff#\J	.
4E\ 4B\ 4d\	4ee/)	.
=36	=36	=36
.	(eeq/LL	.
.	ff#q/JJ	.
4AA/	8ee\L	.
.	8cc#\	.
4E\ 4A\ 4c#\	8a\	.
.	8ff#\J	.
4E\ 4A\ 4c#\	4ee\)	.
=37	=37	=37
4EE/	(8bb\L	.
.	8ccc#\	.
4E\ 4G#\ 4d\	8ddd\	.
.	8fff#\	.
4E\ 4G#\ 4d\	8eee\	.
.	8ddd\J	.
=38	=38	=38
4AA/	8ccc#\L	.
.	8bb\	.
4E\ 4A\ 4c#\	8ccc#\	.
.	8gg#\	.
4E\ 4A\ 4c#\	8aa\	.
.	8ff#\J)	.
=39	=39	=39
.	eeq/LL	.
.	(ff#q/JJ	.
4EE/	8ee\L	.
.	8dd\	.
4E\ 4B\ 4d\	8g#\	.
.	8ff#\	.
4E\ 4B\ 4d\	8ee\	.
.	8g#\J	.
=40	=40	=40
4AA/	4a/)	.
4E\ 4c#\	4r	.
4r	4e/	p
=41:|!	=41:|!	=41:|!
*>D	*>D	*>D
4AAA/	(8a/L	.
.	8b/J	.
4A\ 4c\ 4e\	4cc\)	.
4A\ 4c\ 4e\	4cc\	.
=42	=42	=42
4DD/	(8dd\L	.
.	8ee\J	.
4A\ 4d\ 4f\	2ff\)	.
4A\ 4d\ 4f\	.	.
=43	=43	=43
4GG/	(8b\L	.
.	8cc\	.
4G\ 4B\ 4f\	8dd\	.
.	8aa\	.
4G\ 4B\ 4f\	8gg\	.
.	8ff\J)	.
=44	=44	=44
.	eeq/LL	.
.	ffq/JJ	.
4C/	(8ee\L	.
.	8dd#\J	.
4G\ 4c\ 4e\	2ee\)	.
4G\ 4c\ 4e\	.	.
=45	=45	=45
4AA/	(8a/L	.
.	8b/J	.
4A\ 4c\ 4e\	4cc\)	.
4A\ 4c\ 4e\	4cc\	.
=46	=46	=46
4DD/	(8dd\L	.
.	8ee\J	.
4A\ 4d\ 4f\	2ff\)	.
4A\ 4d\ 4f\	.	.
=47	=47	=47
4GG/	(8b\L	.
.	8cc\	.
4G\ 4d\ 4f\	8dd\	.
.	8aa\	.
4G\ 4d\ 4f\	8gg\	.
.	8b\J	.
=48	=48	=48
4C/	4cc\)	.
4G\ 4e\	4r	.
4r	4e/	mf
=49	=49	=49
4AAA/	(8a/L	.
.	8b/J	.
4A\ 4c\ 4e\	4cc\)	.
4A\ 4c\ 4e\	4cc\	.
=50	=50	=50
4DD/	(8dd\L	.
.	8ee\J	.
4A\ 4d\ 4f\	2ff\)	.
4A\ 4d\ 4f\	.	.
=51	=51	=51
4EE/	8r	.
.	(8ee\	.
4E\ 4G#\ 4d\	8dd#\L	.
.	8ee\	.
4E\ 4G#\ 4d\	8bb\	.
.	8ddn\J	.
=52	=52	=52
4AA/	2cc\)	.
4E\ 4A\ 4c\	.	.
4E\ 4A\ 4c\	4r	.
=53	=53	=53
4C/	8r	.
.	8ccc\L	.
4E\ 4A\ 4e\	(8bb\	.
.	8aa\	.
4r	8gg\	.
.	8ff\J	.
=54	=54	=54
4D/	8ee\L	.
.	8dd\	.
4A\ 4B\ 4f\	8cc#\	.
.	8dd\	.
4r	8ee\)	.
.	8ff\J	.
=55	=55	=55
4EE/	(4ee\	.
4E\ 4c\	8dd#\L	.
.	8ee\	.
4E\ 4B\ 4d\	8ff\	.
.	8g#\J)	.
=56	=56	=56
4AA/	2a/	.
4E\ 4c\	.	.
4r	4r	.
==	==	==
*-	*-	*-
!!!ENC: Craig Stuart Sapp
!!!END: 2004/12/23/
